X:7850
T:On top of old Smokey
C:anon.
O:USA?
R:Waltz
Z:Transcribed by Frank Nordberg - http://www.musicaviva.com
F:http://abc.musicaviva.com/tunes/usa/old-smokey.abc
M:3/4
L:1/4
K:C
C|"C"CEG|"F"c3|"F"A3-|"F"AzA|
w:On top of old Smok-ey,_ all
"F"FGA|"C"G3-|"C"G3-|"C"GzC|
w:cov-ered with snow,__ I
"C"CEG|"G7"G3|"G7"D3-|"G7"DzE|
w:lost my true lov-er_ for
"G7"FED|"C"E3-|"C"E3-|"C"E z C|
w:court-in' too slow.__ For
"C"CEG|"F"c3|"F"A3-|"F"AzA|
w:court-in's great pleas-ure,_ and
"F"FGA|"C"G3-|"C"G3-|"C"GzC|
w:flirt-in' is grief.__ A
"C"CEG|"G7"G3|"G7"D3-|"G7"DzE|
w:false heart-ed lov-er_ is
"G7"FED|"C"C3-|"F"C3-|"C"C z|]
w:worse than a thief.__
W:
W:On top of old Smokey,
W:all covered with snow,
W:I lost my true lover
W:for courtin' too slow.
W:For courtin's great pleasure,
W:and flirtin' is grief.
W:A false hearted lover
W:is worse than a thief.
W:
W:
W:  From Musica Viva - http://www.musicaviva.com
W:  the Internet center for free sheet music downloads.

